X: 41593
T: Up And Run Away
R: reel
M: 4/4
K: Aminor
ABcA d2df|ABcA B2Bc|ABcA defa|1 ec(3BcB A2a2:|2 ec(3BcB A2fg||
afec defg|afec B2fg|afec defa|1 ec(3BcB A2fg:|2 ec(3BcB A2a2||

